casedrop/img/footer/icons/email.svg

<svg width="20" height="14" viewBox="0 0 20 14" fill="none" xmlns="http://www.w3.org/2000/svg">
<path fill-rule="evenodd" clip-rule="evenodd" d="M16.6667 0.333496C18.0474 0.333496 19.1667 1.45279 19.1667 2.8335V11.1668C19.1667 12.5476 18.0474 13.6668 16.6667 13.6668H3.33334C1.95264 13.6668 0.833344 12.5476 0.833344 11.1668V2.8335C0.833344 1.45279 1.95264 0.333496 3.33334 0.333496H16.6667ZM16.0441 2.00016H3.95599L9.48368 6.36408C9.78643 6.60316 10.2136 6.60316 10.5164 6.36408L16.0441 2.00016ZM2.50001 2.97416V11.1668C2.50001 11.6271 2.87311 12.0002 3.33334 12.0002H16.6667C17.1269 12.0002 17.5 11.6271 17.5 11.1668V2.97418L11.5491 7.67225C10.6408 8.38933 9.35918 8.38933 8.45093 7.67225L2.50001 2.97416Z" fill="#31E26A"/>
</svg>

<svg width="20" height="14" fill="none" xmlns="http://www.w3.org/2000/svg"><path fill-rule="evenodd" clip-rule="evenodd" d="M16.667.333a2.5 2.5 0 012.5 2.5v8.334a2.5 2.5 0 01-2.5 2.5H3.333a2.5 2.5 0 01-2.5-2.5V2.833a2.5 2.5 0 012.5-2.5h13.334zM16.044 2H3.956l5.528 4.364a.83.83 0 001.032 0L16.044 2zM2.5 2.974v8.193c0 .46.373.833.833.833h13.334c.46 0 .833-.373.833-.833V2.974l-5.95 4.698a2.5 2.5 0 01-3.1 0L2.5 2.974z" fill="#31E26A"/></svg>
